X:1
T:Title
%%score { ( 1 3 ) | 2 }
L:1/8
M:3/4
K:Ab
V:1 treble nm="Grand Piano"
V:3 treble 
V:2 bass 
V:1
 z2 z2[Q:1/4=100] [A,C]>[B,D] | [CE]3 [EA] [EG][EA] | [EB] B3 Bd | c3 B GE |[M:2/4] [Ec]4 | %5
[M:1/4] [_Gc][Gc] |[M:3/4] [Fd]3 [Fd] [A,DF][A,DF] | [DFB] [DFB]3 [CEA]>[CEA] | %8
 [B,EG]3 [B,EG] [DEF][DEG] |[M:2/4] [CEA]4 |[M:4/4] z2 c6 | z2 B6 | z2 d6 | z2 c6 | z2 z c- c3 z | %15
 Ac .[Fd]2 DDDD | [FA][FB] [Ec]2- [Ec][CEA] [DEB]2- |[M:3/4] [DEB][CEA] [CEA]4- | [CEA]2 z2 z2 |] %19
V:2
 z2 z2 [A,,E,]>[A,,E,] | [A,,A,]3 [C,E,] [D,B,][C,A,] | [B,,G,] [E,G,E]3 [E,G,E][E,B,E] | %3
 [A,E]3 [E,G,E] [E,B,E][E,G,] |[M:2/4] [A,,A,]4 |[M:1/4] [A,,A,][A,,A,] | %6
[M:3/4] [D,A,]3 [D,A,] D,D, | B,, B,,3 E,>E, | E,3 E, E,E, |[M:2/4] A,,4 | %10
[M:4/4] z2 z [A,,A,] [A,,A,][A,,A,] [A,,A,]2 | z2 z [E,G,] [E,G,][E,G,] [E,G,]2 | %12
 z2 z [E,G,] [E,G,][E,G,] [E,G,]2 | z2 z A, [E,A,][C,A,] [A,,A,]2 | %14
 [A,,A,][A,,B,][A,,C][A,,A,] [A,,A,][A,,A,][A,,A,][A,,A,] | %15
 z2 [D,A,][D,A,D] [D,A,][D,A,][D,A,][D,A,] | [C,A,][D,A,] [E,A,]2- [E,A,]E, E,2- | %17
[M:3/4] E,A,, A,,4- | A,,2 z2 z2 |] %19
V:3
 x6 | x6 | x6 | x6 |[M:2/4] x4 |[M:1/4] x2 |[M:3/4] x6 | x6 | x6 |[M:2/4] x4 |[M:4/4] E2 z E EEEE | %11
 FE z E EE E2 | E2 z E EEEE | FE z E EE E2 | [Ec][Ed][Ee]E EEEE | z2 z F- F3 z | x8 |[M:3/4] x6 | %18
 x6 |] %19

